public/images/logo.svg

<svg fill="none" xmlns="http://www.w3.org/2000/svg">
<path fill-rule="evenodd" clip-rule="evenodd" d="M68.764 0.121126C71.7369 -0.309294 74.4553 0.414529 76.3077 2.17888C78.0022 3.79274 78.857 6.07849 78.6527 8.45043C78.2661 12.9338 76.1065 16.5259 70.0937 22.4442L60.253 22.7697C60.253 22.7697 67.1078 16.4973 69.686 13.4327C71.3565 11.4468 72.0641 9.30312 71.3779 7.87429C70.9432 6.96881 69.9669 6.51817 68.764 6.58556V0.121126ZM48.5989 3.67584V9.50404L57.1459 8.55701V2.46572L48.5989 3.67584ZM41.6382 29.9999V4.66129L47.503 3.83078V29.9999H41.6382ZM18.4708 7.94896V12.8484L24.9312 12.1327V7.03449L18.4708 7.94896ZM13.1633 29.9998V8.70064L17.6371 8.06723V29.9998H13.1633ZM0 10.5643V14.8954L11.5973 13.6101V8.92262L0 10.5643ZM3.70046 15.1589V30H7.94665V14.7223L3.70046 15.1589ZM18.4708 21.4848V16.4952L22.712 16.128V21.2515L18.4708 21.4848ZM18.4707 25.0802V29.9998H24.9311V24.8839L18.4707 25.0802ZM48.5989 19.8241V13.8878L54.2013 13.404V19.5158L48.5989 19.8241ZM48.5989 24.1629V29.9998H57.1459V23.9032L48.5989 24.1629ZM26.6404 29.9999V6.79238L31.7366 6.0708V29.9999H26.6404ZM32.6878 24.648V29.9998H40.0858V24.4231L32.6878 24.648ZM79 29.9998V23.2351L59.0391 23.7354V29.9998H79ZM59.2992 12.8208C58.9706 5.80804 61.8181 1.50974 67.6166 0.266217L67.6202 6.84998C66.4031 7.36659 65.2003 8.30633 65.4821 12.2683L59.2992 12.8208Z" fill="white"/>
<mask id="mask0_3271_27" style="mask-type:luminance" maskUnits="userSpaceOnUse" x="0" y="0" width="79" height="30">
<path fill-rule="evenodd" clip-rule="evenodd" d="M68.764 0.121126C71.7369 -0.309294 74.4553 0.414529 76.3077 2.17888C78.0022 3.79274 78.857 6.07849 78.6527 8.45043C78.2661 12.9338 76.1065 16.5259 70.0937 22.4442L60.253 22.7697C60.253 22.7697 67.1078 16.4973 69.686 13.4327C71.3565 11.4468 72.0641 9.30312 71.3779 7.87429C70.9432 6.96881 69.9669 6.51817 68.764 6.58556V0.121126ZM48.5989 3.67584V9.50404L57.1459 8.55701V2.46572L48.5989 3.67584ZM41.6382 29.9999V4.66129L47.503 3.83078V29.9999H41.6382ZM18.4708 7.94896V12.8484L24.9312 12.1327V7.03449L18.4708 7.94896ZM13.1633 29.9998V8.70064L17.6371 8.06723V29.9998H13.1633ZM0 10.5643V14.8954L11.5973 13.6101V8.92262L0 10.5643ZM3.70046 15.1589V30H7.94665V14.7223L3.70046 15.1589ZM18.4708 21.4848V16.4952L22.712 16.128V21.2515L18.4708 21.4848ZM18.4707 25.0802V29.9998H24.9311V24.8839L18.4707 25.0802ZM48.5989 19.8241V13.8878L54.2013 13.404V19.5158L48.5989 19.8241ZM48.5989 24.1629V29.9998H57.1459V23.9032L48.5989 24.1629ZM26.6404 29.9999V6.79238L31.7366 6.0708V29.9999H26.6404ZM32.6878 24.648V29.9998H40.0858V24.4231L32.6878 24.648ZM79 29.9998V23.2351L59.0391 23.7354V29.9998H79ZM59.2992 12.8208C58.9706 5.80804 61.8181 1.50974 67.6166 0.266217L67.6202 6.84998C66.4031 7.36659 65.2003 8.30633 65.4821 12.2683L59.2992 12.8208Z" fill="white"/>
</mask>
<g mask="url(#mask0_3271_27)">
</g>
</svg>

<svg alt="logo" fill="none" xmlns="http://www.w3.org/2000/svg" viewBox="0 0 79 30"><path fill-rule="evenodd" clip-rule="evenodd" d="M68.764.121c2.973-.43 5.691.294 7.544 2.058 1.694 1.614 2.549 3.9 2.345 6.271-.387 4.484-2.547 8.076-8.56 13.994l-9.84.326s6.855-6.273 9.433-9.337c1.67-1.986 2.378-4.13 1.692-5.559-.435-.905-1.411-1.356-2.614-1.288V.12zM48.599 3.676v5.828l8.547-.947V2.466l-8.547 1.21zM41.639 30V4.66l5.864-.83V30h-5.865zM18.47 7.949v4.9l6.46-.716V7.034l-6.46.915zm-5.308 22.05V8.702l4.474-.634V30h-4.474zM0 10.565v4.331l11.597-1.285V8.923L0 10.564zm3.7 4.595V30h4.247V14.722L3.7 15.16zm14.77 6.326v-4.99l4.242-.367v5.123l-4.241.234zm0 3.595V30h6.461v-5.116l-6.46.196zM48.6 19.824v-5.936l5.602-.484v6.112l-5.602.308zm0 4.339V30h8.547v-6.097l-8.547.26zM26.64 30V6.792l5.097-.721V30H26.64zm6.048-5.352V30h7.398v-5.577l-7.398.225zM79 30v-6.765l-19.96.5V30H79zM59.3 12.82C58.97 5.809 61.817 1.51 67.616.267l.003 6.584c-1.217.517-2.42 1.456-2.138 5.418l-6.183.553z" fill="#fff"/><mask id="mask0_3271_27" style="mask-type:luminance" maskUnits="userSpaceOnUse" x="0" y="0" width="79" height="30"><path fill-rule="evenodd" clip-rule="evenodd" d="M68.764.121c2.973-.43 5.691.294 7.544 2.058 1.694 1.614 2.549 3.9 2.345 6.271-.387 4.484-2.547 8.076-8.56 13.994l-9.84.326s6.855-6.273 9.433-9.337c1.67-1.986 2.378-4.13 1.692-5.559-.435-.905-1.411-1.356-2.614-1.288V.12zM48.599 3.676v5.828l8.547-.947V2.466l-8.547 1.21zM41.639 30V4.66l5.864-.83V30h-5.865zM18.47 7.949v4.9l6.46-.716V7.034l-6.46.915zm-5.308 22.05V8.702l4.474-.634V30h-4.474zM0 10.565v4.331l11.597-1.285V8.923L0 10.564zm3.7 4.595V30h4.247V14.722L3.7 15.16zm14.77 6.326v-4.99l4.242-.367v5.123l-4.241.234zm0 3.595V30h6.461v-5.116l-6.46.196zM48.6 19.824v-5.936l5.602-.484v6.112l-5.602.308zm0 4.339V30h8.547v-6.097l-8.547.26zM26.64 30V6.792l5.097-.721V30H26.64zm6.048-5.352V30h7.398v-5.577l-7.398.225zM79 30v-6.765l-19.96.5V30H79zM59.3 12.82C58.97 5.809 61.817 1.51 67.616.267l.003 6.584c-1.217.517-2.42 1.456-2.138 5.418l-6.183.553z" fill="#fff"/></mask></svg>
